X:1
T: Ally Croaker's Favourite
C:
R:Reel
I:speed 232
Q:232
K:G
M:4/4
L:1/8
|:AB de f2fe|f2fa gee2|AB de f2fa|ge dB BAA2|
AB de f2fe|f2fa gee2|AB de f2fa|ge dB BAA2:|
|:a2af g2ge|a2af gee2|a2af g2ge|df ed ^cAA2|
a2af g2ge|a2af gee2|AB de f2fa|ge dB BAA2:|
